app/assets/SVG/message_24.svg

<?xml version="1.0" encoding="UTF-8"?>
<svg width="24px" height="24px" viewBox="0 0 24 24" version="1.1" xmlns="http://www.w3.org/2000/svg" xmlns:xlink="http://www.w3.org/1999/xlink">
    <!-- Generator: Sketch 46.1 (44463) - http://www.bohemiancoding.com/sketch -->
    <title>message_24</title>
    <desc>Created with Sketch.</desc>
    <defs></defs>
    <g id="01_main" stroke="none" stroke-width="1" fill="none" fill-rule="evenodd">
        <g id="05_mine_0803-copy-2" transform="translate(-25.000000, -301.000000)" fill="#00BFD7">
            <g id="Group-3" transform="translate(25.000000, 301.000000)">
                <g id="消息-(1)">
                    <path d="M6.07037654,10.0866529 C6.07037654,10.9218655 6.75792312,11.5989301 7.60606615,11.5989301 C8.45420918,11.5989301 9.14175576,10.9218655 9.14175576,10.0866529 C9.14175576,9.25144021 8.45420918,8.57437563 7.60606615,8.57437563 C6.75792312,8.57437563 6.07037654,9.25144021 6.07037654,10.0866529 L6.07037654,10.0866529 Z M10.4643352,10.0866529 C10.4643352,10.9218655 11.1518818,11.5989301 12.0000248,11.5989301 C12.8481679,11.5989301 13.5357144,10.9218655 13.5357144,10.0866529 C13.5357144,9.25144021 12.8481679,8.57437563 12.0000248,8.57437563 C11.1518818,8.57437563 10.4643352,9.25144021 10.4643352,10.0866529 Z M14.8583436,10.0866529 C14.8583436,10.9218655 15.5458902,11.5989301 16.3940332,11.5989301 C17.2421762,11.5989301 17.9297228,10.9218655 17.9297228,10.0866529 L17.9297228,10.0866529 C17.9297228,9.25144021 17.2421762,8.57437563 16.3940332,8.57437563 C15.5458902,8.57437563 14.8583436,9.25144021 14.8583436,10.0866529 L14.8583436,10.0866529 Z M15.1140062,19.3940281 C19.6725607,18.2478276 23,14.6495124 23,10.3878069 C23,5.20306956 18.0751166,1 12,1 C5.92488336,1 1,5.20306956 1,10.3878069 C1,14.6494879 4.32743926,18.2478276 8.88599379,19.3940281 L11.9999752,23 L15.1139565,19.3940281 L15.1140062,19.3940281 Z M9.67844351,17.2965907 C6.1574936,16.4364022 3.58039872,13.6690432 3.58039872,10.3878069 C3.58039872,6.4193298 7.34998126,3.2022334 12,3.2022334 C16.6500187,3.2022334 20.4196013,6.4193298 20.4196013,10.3878069 C20.4196013,13.6672819 17.8452389,16.4334423 14.3271705,17.2951475 L12.0554201,19.8901459 C12.0890795,19.8904149 12.0216613,19.8901459 12.0554201,19.8901459 L9.67841867,17.2965663 L9.67844351,17.2965907 Z" id="Shape"></path>
                </g>
            </g>
        </g>
    </g>
</svg>

<svg width="24" height="24" viewBox="0 0 24 24" xmlns="http://www.w3.org/2000/svg"><title>message_24</title><path d="M6.07 10.087c0 .835.688 1.512 1.536 1.512.848 0 1.536-.677 1.536-1.512 0-.836-.688-1.513-1.536-1.513-.848 0-1.536.677-1.536 1.513zm4.394 0c0 .835.688 1.512 1.536 1.512.848 0 1.536-.677 1.536-1.512 0-.836-.688-1.513-1.536-1.513-.848 0-1.536.677-1.536 1.513zm4.394 0c0 .835.688 1.512 1.536 1.512.848 0 1.536-.677 1.536-1.512 0-.836-.688-1.513-1.536-1.513-.848 0-1.536.677-1.536 1.513zm.256 9.307C19.673 18.248 23 14.65 23 10.388 23 5.203 18.075 1 12 1S1 5.203 1 10.388c0 4.261 3.327 7.86 7.886 9.006L12 23l3.114-3.606zm-5.436-2.097c-3.52-.86-6.098-3.628-6.098-6.91 0-3.968 3.77-7.185 8.42-7.185s8.42 3.217 8.42 7.186c0 3.28-2.575 6.045-6.093 6.907l-2.272 2.595c.034 0-.033 0 0 0l-2.377-2.593z" fill="#00BFD7" fill-rule="evenodd"/></svg>
